assets/img/logo.svg

<svg width="220" height="24" viewBox="0 0 220 24" fill="none" xmlns="http://www.w3.org/2000/svg">
<path d="M40.6871 3.27905L35.321 15.8735L29.9549 3.27905H27.1596L21.8322 15.9626L16.4274 3.27905H13.6282L8.26209 15.8735L2.89599 3.27905H0L6.86443 19.389H9.66363L15.0297 6.79451L20.392 19.3851L18.4523 24.0001H21.3483L28.5689 6.81774L33.9234 19.389H36.7187L42.0848 6.79451L47.4509 19.389H50.3469L43.4825 3.27905H40.6871Z" fill="#1E2188"/>
<path d="M18.1934 0L22.1192 10.4186L26.1264 0H18.1934Z" fill="#E60013"/>
<path d="M68.6406 7.15067L65.5166 17.302H63.835L61.5107 10.1038L59.2344 17.302H57.5527L54.3467 7.15067H56.3633L58.4619 14.2532L60.7451 7.15067H62.2559L64.5664 14.2327L66.583 7.15067H68.6406Z" fill="#132342"/>
<path d="M74.752 7.00028C75.7637 6.99116 76.6706 7.20763 77.4727 7.64969C78.2793 8.09175 78.9059 8.71382 79.3525 9.5159C79.7992 10.3134 80.0156 11.2158 80.002 12.2229C80.0111 12.9794 79.8857 13.6835 79.626 14.3352C79.3662 14.9869 79.0062 15.5406 78.5459 15.9964C78.0856 16.4521 77.5273 16.8076 76.8711 17.0628C76.2148 17.318 75.5085 17.4433 74.752 17.4388C73.9863 17.4388 73.2777 17.3111 72.626 17.0559C71.9788 16.8007 71.4274 16.4475 70.9717 15.9964C70.516 15.5406 70.1582 14.9892 69.8984 14.3421C69.6432 13.6949 69.5156 12.9886 69.5156 12.2229C69.5156 11.2021 69.7344 10.2952 70.1719 9.50223C70.6139 8.70926 71.2314 8.09403 72.0244 7.65653C72.8219 7.21903 73.7311 7.00028 74.752 7.00028ZM74.752 15.7639C75.7363 15.7639 76.5339 15.4381 77.1445 14.7864C77.7552 14.1302 78.0605 13.2757 78.0605 12.2229C78.0605 11.1839 77.7507 10.3339 77.1309 9.67313C76.5156 9.00776 75.7227 8.67508 74.752 8.67508C73.7812 8.67508 72.9906 9.00548 72.3799 9.66629C71.7692 10.3271 71.4639 11.1793 71.4639 12.2229C71.4639 13.2757 71.7669 14.1302 72.373 14.7864C72.9837 15.4381 73.7767 15.7639 74.752 15.7639Z" fill="#132342"/>
<path d="M86.5371 7.00028C87.5488 6.99116 88.4557 7.20763 89.2578 7.64969C90.0645 8.09175 90.6911 8.71382 91.1377 9.5159C91.5843 10.3134 91.8008 11.2158 91.7871 12.2229C91.7962 12.9794 91.6709 13.6835 91.4111 14.3352C91.1514 14.9869 90.7913 15.5406 90.3311 15.9964C89.8708 16.4521 89.3125 16.8076 88.6562 17.0628C88 17.318 87.2936 17.4433 86.5371 17.4388C85.7715 17.4388 85.0628 17.3111 84.4111 17.0559C83.764 16.8007 83.2126 16.4475 82.7568 15.9964C82.3011 15.5406 81.9434 14.9892 81.6836 14.3421C81.4284 13.6949 81.3008 12.9886 81.3008 12.2229C81.3008 11.2021 81.5195 10.2952 81.957 9.50223C82.3991 8.70926 83.0166 8.09403 83.8096 7.65653C84.6071 7.21903 85.5163 7.00028 86.5371 7.00028ZM86.5371 15.7639C87.5215 15.7639 88.319 15.4381 88.9297 14.7864C89.5404 14.1302 89.8457 13.2757 89.8457 12.2229C89.8457 11.1839 89.5358 10.3339 88.916 9.67313C88.3008 9.00776 87.5078 8.67508 86.5371 8.67508C85.5664 8.67508 84.7757 9.00548 84.165 9.66629C83.5544 10.3271 83.249 11.1793 83.249 12.2229C83.249 13.2757 83.5521 14.1302 84.1582 14.7864C84.7689 15.4381 85.5618 15.7639 86.5371 15.7639Z" fill="#132342"/>
<path d="M97.4131 7.15067L100.072 11.3069L102.745 7.15067H104.878L100.995 12.9202V17.302H99.1494V12.9202L95.2734 7.15067H97.4131Z" fill="#132342"/>
<path d="M110.053 7.00028C111.064 6.99116 111.971 7.20763 112.773 7.64969C113.58 8.09175 114.207 8.71382 114.653 9.5159C115.1 10.3134 115.316 11.2158 115.303 12.2229C115.312 12.9794 115.187 13.6835 114.927 14.3352C114.667 14.9869 114.307 15.5406 113.847 15.9964C113.386 16.4521 112.828 16.8076 112.172 17.0628C111.516 17.318 110.809 17.4433 110.053 17.4388C109.287 17.4388 108.578 17.3111 107.927 17.0559C107.28 16.8007 106.728 16.4475 106.272 15.9964C105.817 15.5406 105.459 14.9892 105.199 14.3421C104.944 13.6949 104.816 12.9886 104.816 12.2229C104.816 11.2021 105.035 10.2952 105.473 9.50223C105.915 8.70926 106.532 8.09403 107.325 7.65653C108.123 7.21903 109.032 7.00028 110.053 7.00028ZM110.053 15.7639C111.037 15.7639 111.835 15.4381 112.445 14.7864C113.056 14.1302 113.361 13.2757 113.361 12.2229C113.361 11.1839 113.051 10.3339 112.432 9.67313C111.816 9.00776 111.023 8.67508 110.053 8.67508C109.082 8.67508 108.291 9.00548 107.681 9.66629C107.07 10.3271 106.765 11.1793 106.765 12.2229C106.765 13.2757 107.068 14.1302 107.674 14.7864C108.285 15.4381 109.077 15.7639 110.053 15.7639Z" fill="#132342"/>
<path d="M116.984 7.15067H118.844V13.5354C118.844 14.2555 119.042 14.8069 119.438 15.1897C119.835 15.5725 120.384 15.7639 121.086 15.7639C121.811 15.7639 122.364 15.568 122.747 15.1761C123.13 14.7841 123.321 14.2373 123.321 13.5354V7.15067H125.174V13.6311C125.174 14.8069 124.809 15.7366 124.08 16.4202C123.351 17.0992 122.353 17.4388 121.086 17.4388C119.824 17.4388 118.823 17.097 118.085 16.4134C117.351 15.7298 116.984 14.8024 116.984 13.6311V7.15067Z" fill="#132342"/>
<path d="M135.981 7.15067V17.302H134.067L129.221 10.1448V17.302H127.361V7.15067H129.275L134.122 14.2942V7.15067H135.981Z" fill="#132342"/>
<path d="M147.958 12.722C147.958 14.1302 147.5 15.2695 146.584 16.1399C145.668 17.0058 144.465 17.4388 142.975 17.4388C141.407 17.4388 140.147 16.9648 139.194 16.0169C138.242 15.069 137.766 13.8134 137.766 12.2503C137.752 11.2386 137.959 10.3317 138.388 9.52957C138.821 8.72749 139.434 8.10542 140.227 7.66336C141.02 7.21675 141.922 7.00028 142.934 7.01395C144.182 7.01395 145.237 7.32384 146.099 7.94364C146.965 8.56343 147.482 9.3769 147.65 10.3841H145.75C145.581 9.85998 145.244 9.44071 144.738 9.12625C144.232 8.80724 143.645 8.64774 142.975 8.64774C141.977 8.64774 141.181 8.97814 140.589 9.63895C139.996 10.2998 139.7 11.1748 139.7 12.2639C139.7 13.3531 139.999 14.2213 140.596 14.8684C141.197 15.511 141.999 15.8323 143.002 15.8323C143.854 15.8323 144.567 15.5976 145.142 15.1282C145.72 14.6588 146.03 14.0572 146.071 13.3235H142.25V11.929H147.903C147.94 12.2389 147.958 12.5032 147.958 12.722Z" fill="#132342"/>
<path d="M163.161 17.302L162.184 9.11258L159.709 17.302H157.692L155.211 8.94168L154.192 17.302H152.34L153.646 7.15067H156.373L158.738 15.3401L161.22 7.15067H163.811L165.055 17.302H163.161Z" fill="#132342"/>
<path d="M166.818 7.15067H174.03V8.79129H168.678V11.4641H173.606V13.0022H168.678V15.6614H174.03V17.302H166.818V7.15067Z" fill="#132342"/>
<path d="M175.938 7.15067H179.813C180.916 7.15067 181.86 7.36258 182.644 7.78641C183.432 8.21024 184.022 8.80041 184.414 9.55692C184.811 10.3134 185.009 11.2021 185.009 12.2229C185.009 13.8271 184.544 15.0758 183.614 15.969C182.689 16.8577 181.422 17.302 179.813 17.302H175.938V7.15067ZM179.8 15.6614C180.834 15.6614 181.634 15.3583 182.199 14.7522C182.764 14.1416 183.047 13.303 183.047 12.2366C183.047 11.1337 182.757 10.2838 182.179 9.6868C181.604 9.08979 180.812 8.79129 179.8 8.79129H177.797V15.6614H179.8Z" fill="#132342"/>
<path d="M186.779 17.302V7.15067H188.639V17.302H186.779Z" fill="#132342"/>
<path d="M195.502 7.01395C196.742 7.01395 197.797 7.33752 198.667 7.98465C199.542 8.62723 200.077 9.47944 200.273 10.5413H198.298C198.125 9.97163 197.787 9.51818 197.286 9.18094C196.785 8.8437 196.19 8.67508 195.502 8.67508C194.554 8.67508 193.793 9.00093 193.219 9.65262C192.649 10.3043 192.364 11.1611 192.364 12.2229C192.364 13.303 192.651 14.1643 193.226 14.8069C193.8 15.4449 194.554 15.7639 195.488 15.7639C196.176 15.7639 196.773 15.5953 197.279 15.2581C197.79 14.9163 198.129 14.4628 198.298 13.8977H200.273C200.077 14.9596 199.542 15.8164 198.667 16.4681C197.797 17.1152 196.742 17.4388 195.502 17.4388C194.522 17.4524 193.643 17.2405 192.863 16.803C192.084 16.3655 191.478 15.7457 191.045 14.9436C190.612 14.1416 190.402 13.2347 190.416 12.2229C190.416 10.678 190.888 9.42476 191.831 8.46317C192.774 7.49702 193.998 7.01395 195.502 7.01395Z" fill="#132342"/>
<path d="M208.032 15.2171H203.623L202.857 17.302H200.841L204.826 7.15067H206.774L210.89 17.302H208.805L208.032 15.2171ZM207.492 13.761L205.824 9.27664L204.17 13.761H207.492Z" fill="#132342"/>
<path d="M212.332 7.15067H214.191V15.6204H219.305V17.302H212.332V7.15067Z" fill="#132342"/>
</svg>

<svg width="220" height="24" viewBox="0 0 220 24" fill="none" xmlns="http://www.w3.org/2000/svg"><path d="M40.687 3.279l-5.366 12.595-5.366-12.595H27.16l-5.328 12.684-5.405-12.684h-2.799L8.262 15.874 2.896 3.278H0l6.864 16.11h2.8L15.03 6.795l5.362 12.59L18.452 24h2.896l7.22-17.182 5.355 12.571h2.796l5.366-12.594 5.366 12.594h2.896l-6.864-16.11h-2.796z" fill="#2CA6FF"/><path d="M18.193 0l3.926 10.419L26.126 0h-7.933z" fill="#EF6F3A"/><path d="M68.64 7.15l-3.123 10.152h-1.682l-2.324-7.198-2.277 7.198h-1.681L54.347 7.151h2.016l2.099 7.102 2.283-7.102h1.51l2.311 7.082 2.017-7.082h2.058zM74.752 7c1.012-.009 1.919.208 2.72.65a4.69 4.69 0 0 1 1.88 1.866c.447.797.664 1.7.65 2.707.01.756-.116 1.46-.376 2.112a4.81 4.81 0 0 1-1.08 1.661 4.839 4.839 0 0 1-1.675 1.067 5.7 5.7 0 0 1-2.119.376 5.78 5.78 0 0 1-2.126-.383 4.844 4.844 0 0 1-1.654-1.06 4.877 4.877 0 0 1-1.074-1.654 5.727 5.727 0 0 1-.382-2.12c0-1.02.218-1.927.656-2.72a4.657 4.657 0 0 1 1.852-1.845C72.822 7.219 73.731 7 74.752 7zm0 8.764c.984 0 1.782-.326 2.392-.978.611-.656.916-1.51.916-2.563 0-1.04-.31-1.89-.93-2.55-.614-.665-1.407-.998-2.378-.998-.97 0-1.761.33-2.372.991-.61.661-.916 1.513-.916 2.557 0 1.053.303 1.907.909 2.563.61.652 1.404.978 2.379.978zM86.537 7c1.012-.009 1.919.208 2.72.65a4.689 4.689 0 0 1 1.88 1.866c.447.797.664 1.7.65 2.707a5.47 5.47 0 0 1-.376 2.112 4.81 4.81 0 0 1-1.08 1.661 4.839 4.839 0 0 1-1.675 1.067 5.7 5.7 0 0 1-2.119.376 5.78 5.78 0 0 1-2.126-.383 4.846 4.846 0 0 1-1.654-1.06 4.876 4.876 0 0 1-1.073-1.654 5.727 5.727 0 0 1-.383-2.12c0-1.02.218-1.927.656-2.72a4.658 4.658 0 0 1 1.853-1.845C84.607 7.219 85.516 7 86.537 7zm0 8.764c.984 0 1.782-.326 2.393-.978.61-.656.916-1.51.916-2.563 0-1.04-.31-1.89-.93-2.55-.615-.665-1.408-.998-2.379-.998-.97 0-1.761.33-2.372.991-.61.661-.916 1.513-.916 2.557 0 1.053.303 1.907.91 2.563.61.652 1.403.978 2.378.978zM97.413 7.15l2.659 4.157 2.673-4.156h2.133l-3.883 5.77v4.381h-1.846V12.92l-3.876-5.77h2.14zm12.64-.15c1.011-.009 1.918.208 2.72.65a4.683 4.683 0 0 1 1.88 1.866c.447.797.663 1.7.65 2.707a5.47 5.47 0 0 1-.376 2.112 4.818 4.818 0 0 1-1.08 1.661 4.848 4.848 0 0 1-1.675 1.067 5.7 5.7 0 0 1-2.119.376 5.776 5.776 0 0 1-2.126-.383 4.852 4.852 0 0 1-1.655-1.06 4.89 4.89 0 0 1-1.073-1.654 5.73 5.73 0 0 1-.383-2.12c0-1.02.219-1.927.657-2.72a4.655 4.655 0 0 1 1.852-1.845c.798-.438 1.707-.657 2.728-.657zm0 8.764c.984 0 1.782-.326 2.392-.978.611-.656.916-1.51.916-2.563 0-1.04-.31-1.89-.929-2.55-.616-.665-1.409-.998-2.379-.998-.971 0-1.762.33-2.372.991-.611.661-.916 1.513-.916 2.557 0 1.053.303 1.907.909 2.563.611.652 1.403.978 2.379.978zm6.931-8.614h1.86v6.385c0 .72.198 1.272.594 1.655.397.383.946.574 1.648.574.725 0 1.278-.196 1.661-.588.383-.392.574-.939.574-1.64V7.15h1.853v6.48c0 1.176-.365 2.106-1.094 2.79-.729.678-1.727 1.018-2.994 1.018-1.262 0-2.263-.342-3.001-1.026-.734-.683-1.101-1.61-1.101-2.782V7.15zm18.997 0v10.152h-1.914l-4.846-7.157v7.157h-1.86V7.151h1.914l4.847 7.143V7.151h1.859zm11.977 5.572c0 1.408-.458 2.548-1.374 3.418-.916.866-2.119 1.299-3.609 1.299-1.568 0-2.828-.474-3.781-1.422-.952-.948-1.428-2.204-1.428-3.767-.014-1.011.193-1.918.622-2.72a4.59 4.59 0 0 1 1.839-1.867c.793-.446 1.695-.663 2.707-.649 1.248 0 2.303.31 3.165.93.866.62 1.383 1.433 1.551 2.44h-1.9c-.169-.524-.506-.943-1.012-1.258-.506-.319-1.093-.478-1.763-.478-.998 0-1.794.33-2.386.99-.593.662-.889 1.537-.889 2.626 0 1.09.299 1.957.896 2.604.601.643 1.403.964 2.406.964.852 0 1.565-.234 2.14-.704.578-.47.888-1.07.929-1.805h-3.821V11.93h5.653c.037.31.055.574.055.793zm15.203 4.58l-.977-8.19-2.475 8.19h-2.017l-2.481-8.36-1.019 8.36h-1.852l1.306-10.151h2.727l2.365 8.19 2.482-8.19h2.591l1.244 10.151h-1.894zm3.657-10.152h7.212v1.641h-5.352v2.673h4.928v1.538h-4.928v2.66h5.352v1.64h-7.212V7.151zm9.12 0h3.875c1.103 0 2.047.213 2.831.636.788.424 1.378 1.014 1.77 1.77.397.757.595 1.646.595 2.667 0 1.604-.465 2.853-1.395 3.746-.925.889-2.192 1.333-3.801 1.333h-3.875V7.151zm3.862 8.511c1.034 0 1.834-.303 2.399-.909.565-.61.848-1.449.848-2.515 0-1.103-.29-1.953-.868-2.55-.575-.597-1.367-.896-2.379-.896h-2.003v6.87h2.003zm6.979 1.641V7.151h1.86v10.151h-1.86zm8.723-10.288c1.24 0 2.295.324 3.165.97a3.957 3.957 0 0 1 1.606 2.557h-1.975a2.46 2.46 0 0 0-1.012-1.36c-.501-.337-1.096-.506-1.784-.506-.948 0-1.709.326-2.283.978-.57.651-.855 1.508-.855 2.57 0 1.08.287 1.941.862 2.584.574.638 1.328.957 2.262.957.688 0 1.285-.169 1.791-.506.511-.342.85-.795 1.019-1.36h1.975c-.196 1.062-.731 1.918-1.606 2.57-.87.647-1.925.97-3.165.97-.98.014-1.859-.197-2.639-.635a4.582 4.582 0 0 1-1.818-1.86c-.433-.801-.643-1.708-.629-2.72 0-1.545.472-2.798 1.415-3.76.943-.966 2.167-1.449 3.671-1.449zm12.53 8.203h-4.409l-.766 2.085h-2.016l3.985-10.151h1.948l4.116 10.151h-2.085l-.773-2.085zm-.54-1.456l-1.668-4.484-1.654 4.484h3.322zm4.84-6.611h1.859v8.47h5.114v1.682h-6.973V7.151z" fill="#132342"/></svg>
